Komodo/emblems/scalable/emblem-ubuntuone-synchronized.svg

<?xml version="1.0" encoding="UTF-8" standalone="no"?>
<!-- Created with Inkscape (http://www.inkscape.org/) -->

<svg
   xmlns:dc="http://purl.org/dc/elements/1.1/"
   xmlns:cc="http://creativecommons.org/ns#"
   xmlns:rdf="http://www.w3.org/1999/02/22-rdf-syntax-ns#"
   xmlns:svg="http://www.w3.org/2000/svg"
   xmlns="http://www.w3.org/2000/svg"
   xmlns:xlink="http://www.w3.org/1999/xlink"
   xmlns:sodipodi="http://sodipodi.sourceforge.net/DTD/sodipodi-0.dtd"
   xmlns:inkscape="http://www.inkscape.org/namespaces/inkscape"
   width="96"
   height="96"
   id="svg11037"
   version="1.1"
   inkscape:version="0.48.3.1 r9886"
   sodipodi:docname="templat.svg">
  <defs
     id="defs11039">
    <linearGradient
       y2="1046.1001"
       x2="47.999954"
       y1="962.62189"
       x1="47.999954"
       gradientTransform="matrix(1.15,0,0,1.15,-7.1999462,-150.65291)"
       gradientUnits="userSpaceOnUse"
       id="linearGradient3886"
       xlink:href="#linearGradient3795"
       inkscape:collect="always" />
    <linearGradient
       id="linearGradient3795">
      <stop
         style="stop-color:#13a6fd;stop-opacity:1;"
         offset="0"
         id="stop3797" />
      <stop
         style="stop-color:#2975b6;stop-opacity:1;"
         offset="1"
         id="stop3799" />
    </linearGradient>
    <linearGradient
       y2="1046.1001"
       x2="47.999954"
       y1="962.62189"
       x1="47.999954"
       gradientTransform="matrix(1.15,0,0,1.15,-7.1999462,-150.65292)"
       gradientUnits="userSpaceOnUse"
       id="linearGradient11642"
       xlink:href="#ButtonColor-6"
       inkscape:collect="always" />
    <clipPath
       clipPathUnits="userSpaceOnUse"
       id="clipPath3009">
      <path
         id="path3011"
         d="m -2,956.36218 -96,0 0,33.5624 96,25.68742 0,-59.24982 z"
         style="opacity:0.15;fill:#ffffff;fill-opacity:1;stroke:none"
         inkscape:connector-curvature="0" />
    </clipPath>
    <linearGradient
       x1="48"
       y1="90"
       x2="48"
       y2="5.9877172"
       id="linearGradient3052"
       xlink:href="#ButtonColor-6"
       gradientUnits="userSpaceOnUse" />
    <linearGradient
       x1="10.31979"
       y1="21"
       x2="10.31979"
       y2="0.99929649"
       id="ButtonColor-6"
       gradientUnits="userSpaceOnUse">
      <stop
         id="stop3189-4"
         style="stop-color:#c8c8c8;stop-opacity:1"
         offset="0" />
      <stop
         id="stop3191-0"
         style="stop-color:#e6e6e6;stop-opacity:1"
         offset="1" />
    </linearGradient>
    <linearGradient
       gradientTransform="translate(-95.477169,950.36218)"
       y2="5.9877172"
       x2="48"
       y1="90"
       x1="48"
       gradientUnits="userSpaceOnUse"
       id="linearGradient3042"
       xlink:href="#ButtonColor-6"
       inkscape:collect="always" />
    <linearGradient
       x1="8.7404661"
       y1="4.5355735"
       x2="8.7404661"
       y2="20.492353"
       id="linearGradient2938"
       xlink:href="#linearGradient3904"
       gradientUnits="userSpaceOnUse"
       gradientTransform="matrix(4.5355736,0,0,3.5276684,4,-70)" />
    <linearGradient
       x1="11"
       y1="3.9374998"
       x2="11"
       y2="18.083122"
       id="linearGradient3904"
       gradientUnits="userSpaceOnUse">
      <stop
         id="stop3906"
         style="stop-color:#323232;stop-opacity:1"
         offset="0" />
      <stop
         id="stop3908"
         style="stop-color:#787878;stop-opacity:1"
         offset="1" />
    </linearGradient>
    <clipPath
       id="clipPath3732">
      <path
         d="m -100,-74 0,96 96,0 0,-96 -96,0 z M -27.65625,-54 -16,-42.3125 -60.09375,2 -60.125,2 -88,-26 -76.34375,-37.71875 -60.125,-21.40625 -27.65625,-54 z"
         inkscape:connector-curvature="0"
         id="path3734"
         style="opacity:0.3;color:#000000;fill:#ff0000;stroke:none;stroke-width:1;marker:none;visibility:visible;display:inline;overflow:visible;enable-background:accumulate" />
    </clipPath>
    <filter
       color-interpolation-filters="sRGB"
       id="filter3736">
      <feGaussianBlur
         id="feGaussianBlur3738"
         stdDeviation="0.96" />
    </filter>
  </defs>
  <sodipodi:namedview
     id="base"
     pagecolor="#ffffff"
     bordercolor="#666666"
     borderopacity="1.0"
     inkscape:pageopacity="0.0"
     inkscape:pageshadow="2"
     inkscape:zoom="3.959798"
     inkscape:cx="29.118614"
     inkscape:cy="59.964634"
     inkscape:document-units="px"
     inkscape:current-layer="layer1"
     showgrid="false"
     inkscape:window-width="1280"
     inkscape:window-height="750"
     inkscape:window-x="0"
     inkscape:window-y="22"
     inkscape:window-maximized="1"
     showguides="true"
     inkscape:guide-bbox="true">
    <sodipodi:guide
       orientation="0,1"
       position="-24.748737,0"
       id="guide11064" />
    <sodipodi:guide
       orientation="0,1"
       position="-23.233509,96"
       id="guide11066" />
    <sodipodi:guide
       orientation="1,0"
       position="0,54.800776"
       id="guide11068" />
    <sodipodi:guide
       orientation="1,0"
       position="96,51.012704"
       id="guide11070" />
    <sodipodi:guide
       orientation="0,1"
       position="-18.94036,48"
       id="guide11072" />
    <sodipodi:guide
       orientation="1,0"
       position="48,79.296975"
       id="guide11074" />
    <sodipodi:guide
       orientation="1,0"
       position="2,75.508903"
       id="guide11076" />
    <sodipodi:guide
       orientation="0,1"
       position="-77.27667,2"
       id="guide11078" />
    <sodipodi:guide
       orientation="1,0"
       position="94,77.781746"
       id="guide11080" />
    <sodipodi:guide
       orientation="0,1"
       position="-65.912454,94"
       id="guide11082" />
  </sodipodi:namedview>
  <metadata
     id="metadata11042">
    <rdf:RDF>
      <cc:Work
         rdf:about="">
        <dc:format>image/svg+xml</dc:format>
        <dc:type
           rdf:resource="http://purl.org/dc/dcmitype/StillImage" />
        <dc:title></dc:title>
      </cc:Work>
    </rdf:RDF>
  </metadata>
  <g
     inkscape:label="Layer 1"
     inkscape:groupmode="layer"
     id="layer1"
     transform="translate(0,-956.36218)">
    <rect
       x="2"
       y="958.36218"
       width="92"
       height="92"
       style="fill:url(#linearGradient11642);fill-opacity:1.0"
       id="rect3867"
       rx="25"
       ry="25" />
    <g
       transform="translate(4.8501593e-8,1030.3622)"
       style="display:inline"
       id="g3044">
      <path
         style="fill:url(#linearGradient2938);fill-opacity:1;stroke:none;display:inline"
         id="Symbol"
         inkscape:connector-curvature="0"
         d="M 72.350972,-54 39.890477,-21.42148 23.649037,-37.710709 12,-26.011244 39.868078,2 39.890478,1.9776 39.912878,2 84,-42.300543 72.350972,-54 z" />
      <path
         style="opacity:0.2;fill:none;stroke:#ffffff;stroke-width:4;stroke-miterlimit:4;stroke-dasharray:none;display:inline;filter:url(#filter3736)"
         id="path2943"
         clip-path="url(#clipPath3732)"
         transform="translate(100,0)"
         inkscape:connector-curvature="0"
         d="M -27.649028,-54 -60.109523,-21.42148 -76.350963,-37.710709 -88,-26.011244 -60.131922,2 -60.109522,1.9776 -60.087122,2 -16,-42.300543 -27.649028,-54 z" />
      <path
         style="opacity:0.1;fill:#000000;fill-opacity:1;stroke:none;display:inline"
         id="path3740"
         transform="translate(0,-74)"
         inkscape:connector-curvature="0"
         d="M 72.34375,20 39.875,52.59375 23.65625,36.28125 12,48 39.875,76 39.90625,76 84,31.6875 72.34375,20 z m 0,1.96875 9.6875,9.71875 L 39.875,74.03125 13.96875,48 23.65625,38.25 38.875,53.5625 a 1.3923554,1.3923554 0 0 0 2,0 L 72.34375,21.96875 z" />
      <path
         style="opacity:0.2;fill:#000000;fill-opacity:1;stroke:none;display:inline"
         id="path3940"
         transform="translate(0,-74)"
         inkscape:connector-curvature="0"
         d="M 72.34375,20 39.875,52.59375 23.65625,36.28125 12,48 39.875,76 39.90625,76 84,31.6875 72.34375,20 z m 0,1.1875 10.46875,10.5 L 39.875,74.8125 13.1875,48 23.65625,37.46875 39.28125,53.1875 a 0.84827775,0.84827775 0 0 0 1.1875,0 l 31.875,-32 z" />
      <path
         style="opacity:0.3;fill:#000000;fill-opacity:1;stroke:none;display:inline"
         id="path3948"
         transform="translate(0,-74)"
         inkscape:connector-curvature="0"
         d="M 72.34375,20 39.875,52.59375 23.65625,36.28125 12,48 12.5,48.5 23.65625,37.28125 39.875,53.59375 72.34375,21 83.5,32.1875 84,31.6875 72.34375,20 z" />
      <path
         style="opacity:0.5;fill:#ffffff;fill-opacity:1;stroke:none;display:inline"
         id="path3957"
         transform="translate(0,-74)"
         inkscape:connector-curvature="0"
         d="M 83.5,32.1875 39.90625,76 39.875,76 12.5,48.5 12,49 39.875,77 39.90625,77 84,32.6875 l -0.5,-0.5 z" />
    </g>
    <rect
       ry="25"
       rx="25"
       id="rect3003"
       style="opacity:0.15;fill:#ffffff;fill-opacity:1"
       height="92"
       width="92"
       y="958.36218"
       x="-96"
       clip-path="url(#clipPath3009)"
       transform="translate(98,0)" />
  </g>
</svg>

<?xml version="1.0" encoding="UTF-8" standalone="no"?>
<!-- Created with Inkscape (http://www.inkscape.org/) -->
<svg id="svg11037" xmlns:rdf="http://www.w3.org/1999/02/22-rdf-syntax-ns#" xmlns="http://www.w3.org/2000/svg" height="96" width="96" version="1.1" xmlns:cc="http://creativecommons.org/ns#" xmlns:xlink="http://www.w3.org/1999/xlink" xmlns:dc="http://purl.org/dc/elements/1.1/">
 <defs id="defs11039">
  <linearGradient id="linearGradient11642" y2="1046.1" gradientUnits="userSpaceOnUse" y1="962.62" gradientTransform="matrix(1.15 0 0 1.15 -7.1999 -150.65)" x2="48" x1="48">
   <stop id="stop3189-4" style="stop-color:#c8c8c8" offset="0"/>
   <stop id="stop3191-0" style="stop-color:#e6e6e6" offset="1"/>
  </linearGradient>
  <clipPath id="clipPath3009" clipPathUnits="userSpaceOnUse">
   <path id="path3011" style="opacity:.15;fill:#fff" d="m-2 956.36h-96v33.562l96 25.687v-59.25z"/>
  </clipPath>
  <linearGradient id="linearGradient2938" y2="20.492" gradientUnits="userSpaceOnUse" x2="8.7405" gradientTransform="matrix(4.5356 0 0 3.5277 4 -70)" y1="4.5356" x1="8.7405">
   <stop id="stop3906" style="stop-color:#323232" offset="0"/>
   <stop id="stop3908" style="stop-color:#787878" offset="1"/>
  </linearGradient>
  <clipPath id="clipPath3732">
   <path id="path3734" style="opacity:.3;color:#000000;fill:#f00" d="m-100-74v96h96v-96h-96zm72.344 20 11.656 11.688-44.094 44.312h-0.031l-27.875-28 11.656-11.719 16.219 16.313 32.469-32.594z"/>
  </clipPath>
  <filter id="filter3736" color-interpolation-filters="sRGB">
   <feGaussianBlur id="feGaussianBlur3738" stdDeviation="0.96"/>
  </filter>
 </defs>
 <metadata id="metadata11042">
  <rdf:RDF>
   <cc:Work rdf:about="">
    <dc:format>image/svg+xml</dc:format>
    <dc:type rdf:resource="http://purl.org/dc/dcmitype/StillImage"/>
    <dc:title/>
   </cc:Work>
  </rdf:RDF>
 </metadata>
 <g id="layer1" transform="translate(0 -956.36)">
  <rect id="rect3867" style="fill:url(#linearGradient11642)" rx="25" ry="25" height="92" width="92" y="958.36" x="2"/>
  <g id="g3044" transform="translate(4.8502e-8 1030.4)">
   <path id="Symbol" d="m72.351-54-32.461 32.579-16.241-16.29-11.649 11.7 27.868 28.011 0.022-0.0224 0.023 0.0224 44.087-44.301-11.649-11.699z" style="fill:url(#linearGradient2938)"/>
   <path id="path2943" style="opacity:.2;filter:url(#filter3736);stroke:#fff;stroke-width:4;fill:none" d="m-27.649-54-32.461 32.579-16.241-16.29-11.649 11.7 27.868 28.011 0.022-0.0224 0.023 0.0224 44.087-44.301-11.649-11.699z" clip-path="url(#clipPath3732)" transform="translate(100)"/>
   <path id="path3740" d="m72.344 20-32.469 32.594-16.219-16.313-11.656 11.719 27.875 28h0.031l44.094-44.312-11.656-11.688zm0 1.9688 9.6875 9.7188l-42.157 42.343-25.906-26.031 9.687-9.75 15.219 15.312a1.3924 1.3924 0 0 0 2 0l31.469-31.593z" style="opacity:.1" transform="translate(0,-74)"/>
   <path id="path3940" d="m72.344 20-32.469 32.594-16.219-16.313-11.656 11.719 27.875 28h0.031l44.094-44.312-11.656-11.688zm0 1.1875 10.469 10.5l-42.938 43.124-26.687-26.812 10.468-10.531 15.625 15.719a0.84828 0.84828 0 0 0 1.1875 0l31.875-32z" style="opacity:.2" transform="translate(0,-74)"/>
   <path id="path3948" d="m72.344 20-32.469 32.594-16.219-16.313-11.656 11.719 0.5 0.5 11.156-11.219 16.219 16.313 32.469-32.594 11.156 11.188 0.5-0.5-11.656-11.688z" style="opacity:.3" transform="translate(0,-74)"/>
   <path id="path3957" d="m83.5 32.188-43.594 43.812h-0.031l-27.375-27.5-0.5 0.5 27.875 28h0.031l44.094-44.312-0.5-0.5z" style="opacity:.5;fill:#fff" transform="translate(0,-74)"/>
  </g>
  <rect id="rect3003" style="opacity:.15;fill:#fff" transform="translate(98)" clip-path="url(#clipPath3009)" rx="25" ry="25" height="92" width="92" y="958.36" x="-96"/>
 </g>
</svg>
